X:1
T:Hebrides Overture (theme)
C:Felix Mendelssohn
M:4/4
L:1/8
Q:1/4=96
K:Bm
B,3 D F3 A | F3 D B,4 | B,3 D F3 A | d3 A F3 D |
B,3 D F3 A | d3 c B4 | A3 F D3 F | A3 F D4 |
B,3 D F3 A | F3 D B,4 |]
